assets/icons/film.svg

<svg width="18" height="18" viewBox="0 0 18 18" fill="none" xmlns="http://www.w3.org/2000/svg">
<path d="M15.3281 2.8125H2.67188C2.26176 2.81297 1.86858 2.97609 1.57858 3.26608C1.28859 3.55608 1.12547 3.94926 1.125 4.35938V13.6406C1.12547 14.0507 1.28859 14.4439 1.57858 14.7339C1.86858 15.0239 2.26176 15.187 2.67188 15.1875H15.3281C15.7382 15.187 16.1314 15.0239 16.4214 14.7339C16.7114 14.4439 16.8745 14.0507 16.875 13.6406V4.35938C16.8745 3.94926 16.7114 3.55608 16.4214 3.26608C16.1314 2.97609 15.7382 2.81297 15.3281 2.8125ZM3.9375 13.6406C3.9375 13.7525 3.89305 13.8598 3.81394 13.9389C3.73482 14.0181 3.62751 14.0625 3.51562 14.0625H2.67188C2.55999 14.0625 2.45268 14.0181 2.37356 13.9389C2.29445 13.8598 2.25 13.7525 2.25 13.6406V12.7969C2.25 12.685 2.29445 12.5777 2.37356 12.4986C2.45268 12.4194 2.55999 12.375 2.67188 12.375H3.51562C3.62751 12.375 3.73482 12.4194 3.81394 12.4986C3.89305 12.5777 3.9375 12.685 3.9375 12.7969V13.6406ZM3.9375 10.8281C3.9375 10.94 3.89305 11.0473 3.81394 11.1264C3.73482 11.2056 3.62751 11.25 3.51562 11.25H2.67188C2.55999 11.25 2.45268 11.2056 2.37356 11.1264C2.29445 11.0473 2.25 10.94 2.25 10.8281V9.98438C2.25 9.87249 2.29445 9.76518 2.37356 9.68606C2.45268 9.60695 2.55999 9.5625 2.67188 9.5625H3.51562C3.62751 9.5625 3.73482 9.60695 3.81394 9.68606C3.89305 9.76518 3.9375 9.87249 3.9375 9.98438V10.8281ZM3.9375 8.01562C3.9375 8.12751 3.89305 8.23482 3.81394 8.31394C3.73482 8.39305 3.62751 8.4375 3.51562 8.4375H2.67188C2.55999 8.4375 2.45268 8.39305 2.37356 8.31394C2.29445 8.23482 2.25 8.12751 2.25 8.01562V7.17188C2.25 7.05999 2.29445 6.95268 2.37356 6.87356C2.45268 6.79445 2.55999 6.75 2.67188 6.75H3.51562C3.62751 6.75 3.73482 6.79445 3.81394 6.87356C3.89305 6.95268 3.9375 7.05999 3.9375 7.17188V8.01562ZM3.9375 5.20312C3.9375 5.31501 3.89305 5.42232 3.81394 5.50144C3.73482 5.58055 3.62751 5.625 3.51562 5.625H2.67188C2.55999 5.625 2.45268 5.58055 2.37356 5.50144C2.29445 5.42232 2.25 5.31501 2.25 5.20312V4.35938C2.25 4.24749 2.29445 4.14018 2.37356 4.06106C2.45268 3.98195 2.55999 3.9375 2.67188 3.9375H3.51562C3.62751 3.9375 3.73482 3.98195 3.81394 4.06106C3.89305 4.14018 3.9375 4.24749 3.9375 4.35938V5.20312ZM12.4341 9.5625H5.56594C5.41675 9.5625 5.27368 9.50324 5.16819 9.39775C5.0627 9.29226 5.00344 9.14918 5.00344 9C5.00344 8.85082 5.0627 8.70774 5.16819 8.60225C5.27368 8.49676 5.41675 8.4375 5.56594 8.4375H12.4341C12.5832 8.4375 12.7263 8.49676 12.8318 8.60225C12.9373 8.70774 12.9966 8.85082 12.9966 9C12.9966 9.14918 12.9373 9.29226 12.8318 9.39775C12.7263 9.50324 12.5832 9.5625 12.4341 9.5625ZM15.75 13.6406C15.75 13.7525 15.7056 13.8598 15.6264 13.9389C15.5473 14.0181 15.44 14.0625 15.3281 14.0625H14.4844C14.3725 14.0625 14.2652 14.0181 14.1861 13.9389C14.1069 13.8598 14.0625 13.7525 14.0625 13.6406V12.7969C14.0625 12.685 14.1069 12.5777 14.1861 12.4986C14.2652 12.4194 14.3725 12.375 14.4844 12.375H15.3281C15.44 12.375 15.5473 12.4194 15.6264 12.4986C15.7056 12.5777 15.75 12.685 15.75 12.7969V13.6406ZM15.75 10.8281C15.75 10.94 15.7056 11.0473 15.6264 11.1264C15.5473 11.2056 15.44 11.25 15.3281 11.25H14.4844C14.3725 11.25 14.2652 11.2056 14.1861 11.1264C14.1069 11.0473 14.0625 10.94 14.0625 10.8281V9.98438C14.0625 9.87249 14.1069 9.76518 14.1861 9.68606C14.2652 9.60695 14.3725 9.5625 14.4844 9.5625H15.3281C15.44 9.5625 15.5473 9.60695 15.6264 9.68606C15.7056 9.76518 15.75 9.87249 15.75 9.98438V10.8281ZM15.75 8.01562C15.75 8.12751 15.7056 8.23482 15.6264 8.31394C15.5473 8.39305 15.44 8.4375 15.3281 8.4375H14.4844C14.3725 8.4375 14.2652 8.39305 14.1861 8.31394C14.1069 8.23482 14.0625 8.12751 14.0625 8.01562V7.17188C14.0625 7.05999 14.1069 6.95268 14.1861 6.87356C14.2652 6.79445 14.3725 6.75 14.4844 6.75H15.3281C15.44 6.75 15.5473 6.79445 15.6264 6.87356C15.7056 6.95268 15.75 7.05999 15.75 7.17188V8.01562ZM15.75 5.20312C15.75 5.31501 15.7056 5.42232 15.6264 5.50144C15.5473 5.58055 15.44 5.625 15.3281 5.625H14.4844C14.3725 5.625 14.2652 5.58055 14.1861 5.50144C14.1069 5.42232 14.0625 5.31501 14.0625 5.20312V4.35938C14.0625 4.24749 14.1069 4.14018 14.1861 4.06106C14.2652 3.98195 14.3725 3.9375 14.4844 3.9375H15.3281C15.44 3.9375 15.5473 3.98195 15.6264 4.06106C15.7056 4.14018 15.75 4.24749 15.75 4.35938V5.20312Z" fill="_COLOR_VAR_"/>
</svg>

<svg xmlns="http://www.w3.org/2000/svg" width="18" height="18"><path d="M15.328 2.813H2.672a1.55 1.55 0 0 0-1.547 1.546v9.282a1.55 1.55 0 0 0 1.547 1.547h12.656a1.55 1.55 0 0 0 1.547-1.547V4.359a1.55 1.55 0 0 0-1.547-1.546M3.938 13.64a.42.42 0 0 1-.422.422h-.844a.42.42 0 0 1-.422-.422v-.844a.42.42 0 0 1 .422-.422h.844a.42.42 0 0 1 .422.422zm0-2.813a.42.42 0 0 1-.422.422h-.844a.42.42 0 0 1-.422-.422v-.844a.42.42 0 0 1 .422-.421h.844a.42.42 0 0 1 .422.421zm0-2.812a.42.42 0 0 1-.422.422h-.844a.42.42 0 0 1-.422-.422v-.844a.42.42 0 0 1 .422-.422h.844a.42.42 0 0 1 .422.422zm0-2.813a.42.42 0 0 1-.422.422h-.844a.42.42 0 0 1-.422-.422V4.36a.42.42 0 0 1 .422-.421h.844a.42.42 0 0 1 .422.421zm8.496 4.36H5.566a.562.562 0 1 1 0-1.126h6.868a.563.563 0 0 1 0 1.126m3.316 4.078a.42.42 0 0 1-.422.422h-.844a.42.42 0 0 1-.421-.422v-.844a.42.42 0 0 1 .421-.422h.844a.42.42 0 0 1 .422.422zm0-2.813a.42.42 0 0 1-.422.422h-.844a.42.42 0 0 1-.421-.422v-.844a.42.42 0 0 1 .421-.421h.844a.42.42 0 0 1 .422.421zm0-2.812a.42.42 0 0 1-.422.422h-.844a.42.42 0 0 1-.421-.422v-.844a.42.42 0 0 1 .421-.422h.844a.42.42 0 0 1 .422.422zm0-2.813a.42.42 0 0 1-.422.422h-.844a.42.42 0 0 1-.421-.422V4.36a.42.42 0 0 1 .421-.421h.844a.42.42 0 0 1 .422.421z"/></svg>
